assets/Mechanical leg/Flat/mechanical_leg_flat.svg

<svg width="32" height="32" viewBox="0 0 32 32" fill="none" xmlns="http://www.w3.org/2000/svg">
<path d="M16.8701 25.9102L15.1301 24.9102L18.9501 18.3002L20.6801 19.3002L16.8701 25.9102Z" fill="#D3D3D3"/>
<path d="M24.7601 10.8701L24.7301 10.8501L24.7201 10.8402L14.2001 2.91015L14.1801 2.89015L14.1401 2.86015C13.4101 2.33015 12.5001 2.01015 11.5301 2.00015C9.06009 1.98015 7.02009 4.00015 7.00009 6.47015C6.99009 8.09015 7.83009 9.51014 9.10009 10.3101L12.6801 12.5402C13.3701 12.9702 14.2001 13.1101 14.9901 12.9201L15.7301 12.7402C16.0801 12.6602 16.4501 12.7301 16.7501 12.9501L18.4754 14.3106L16.5101 17.7102C15.6001 19.2802 16.1401 21.3002 17.7201 22.2102C19.3001 23.1202 21.3201 22.5801 22.2201 21.0101L25.495 15.3205C25.8455 14.7965 26.0501 14.1668 26.0501 13.4902C26.0501 12.4302 25.5501 11.4801 24.7601 10.8701Z" fill="#9B9B9B"/>
<path d="M14.0001 28.8901V25.4001C14.0055 24.3002 14.8989 23.4102 16.0001 23.4102C16.5307 23.4102 17.0131 23.6168 17.3711 23.954L17.3801 23.9501L21.5901 27.6501C21.8501 27.8801 22.1901 28.0101 22.5401 28.0001H23.0001C23.5501 28.0001 24.0001 28.4501 24.0001 29.0001C24.0001 29.5501 23.5501 30.0001 23.0001 30.0001H15.1101C14.5001 30.0001 14.0001 29.5101 14.0001 28.8901Z" fill="#9B9B9B"/>
<path d="M11.5001 8.50014C12.5992 8.50014 13.4901 7.60919 13.4901 6.51014C13.4901 5.41109 12.5992 4.52014 11.5001 4.52014C10.4011 4.52014 9.51013 5.41109 9.51013 6.51014C9.51013 7.60919 10.4011 8.50014 11.5001 8.50014Z" fill="#D3D3D3"/>
<path d="M22.7501 15.1101C23.6448 15.1101 24.3701 14.3848 24.3701 13.4901C24.3701 12.5954 23.6448 11.8701 22.7501 11.8701C21.8554 11.8701 21.1301 12.5954 21.1301 13.4901C21.1301 14.3848 21.8554 15.1101 22.7501 15.1101Z" fill="#D3D3D3"/>
<path d="M16.7501 25.4102C16.7501 25.8244 16.4143 26.1602 16.0001 26.1602C15.5859 26.1602 15.2501 25.8244 15.2501 25.4102C15.2501 24.9959 15.5859 24.6602 16.0001 24.6602C16.4143 24.6602 16.7501 24.9959 16.7501 25.4102Z" fill="#D3D3D3"/>
<path d="M17.9729 15.1799L18.4754 14.3106L16.9432 13.1024L16.9471 13.0975L20.9597 16.2615C21.2392 16.4723 21.6167 16.665 21.9975 16.805C22.3868 16.9481 22.7282 17.0173 22.9299 17.0173C23.8267 17.0173 24.5683 16.6458 25.1118 15.9863L24.0293 17.867C23.6896 17.9649 23.323 18.0173 22.9299 18.0173C22.5611 18.0173 22.0938 17.9058 21.6525 17.7435C21.2043 17.5788 20.7309 17.3426 20.3523 17.0559L20.3445 17.05L17.9729 15.1799Z" fill="#636363"/>
<path d="M14.0001 25.4299V28H16C16.2344 28 16.336 27.5547 16 27.5C14.8656 27.3153 14.0103 26.526 14.0001 25.4299Z" fill="#636363"/>
</svg>

<svg xmlns="http://www.w3.org/2000/svg" width="32" height="32" fill="none"><path fill="#D3D3D3" d="m16.87 25.91-1.74-1 3.82-6.61 1.73 1-3.81 6.61Z"/><path fill="#9B9B9B" d="m24.76 10.87-.03-.02-.01-.01L14.2 2.91l-.02-.02-.04-.03A4.53 4.53 0 0 0 11.53 2C9.06 1.98 7.02 4 7 6.47c-.01 1.62.83 3.04 2.1 3.84l3.58 2.23c.69.43 1.52.57 2.31.38l.74-.18c.35-.08.72-.01 1.02.21l1.725 1.36-1.965 3.4a3.293 3.293 0 0 0 1.21 4.5c1.58.91 3.6.37 4.5-1.2l3.275-5.69a3.302 3.302 0 0 0-.735-4.45ZM14 28.89V25.4a2 2 0 0 1 3.371-1.446l.01-.004 4.21 3.7c.26.23.6.36.95.35H23c.55 0 1 .45 1 1s-.45 1-1 1h-7.89c-.61 0-1.11-.49-1.11-1.11Z"/><path fill="#D3D3D3" d="M11.5 8.5a1.99 1.99 0 1 0 0-3.98 1.99 1.99 0 0 0 0 3.98ZM22.75 15.11a1.62 1.62 0 1 0 0-3.24 1.62 1.62 0 0 0 0 3.24ZM16.75 25.41a.75.75 0 1 1-1.5 0 .75.75 0 0 1 1.5 0Z"/><path fill="#636363" d="m17.973 15.18.502-.87-1.532-1.208.004-.005 4.013 3.165c.28.21.657.403 1.037.543.39.143.731.212.933.212.897 0 1.638-.371 2.182-1.03l-1.083 1.88c-.34.098-.706.15-1.1.15-.368 0-.835-.111-1.276-.273a5.163 5.163 0 0 1-1.3-.688l-.009-.006-2.371-1.87ZM14 25.43V28h2c.234 0 .336-.445 0-.5-1.134-.185-1.99-.974-2-2.07Z"/></svg>
